proprietary/assets/icons/computer-en-internet/zendmast.svg

<svg enable-background="new 0 0 64 64" viewBox="0 0 64 64" xmlns="http://www.w3.org/2000/svg"><path d="m0 0h64v64h-64z" fill="none"/><path d="m23.942 25.897c-1.215-1.655-1.942-3.691-1.942-5.897 0-2.236.746-4.295 1.991-5.962l-3.224-2.357c-1.73 2.329-2.767 5.201-2.767 8.319 0 3.088 1.017 5.937 2.718 8.255z"/><path d="m40.058 25.897 3.224 2.357c1.701-2.317 2.718-5.166 2.718-8.254 0-3.118-1.037-5.99-2.766-8.32l-3.224 2.357c1.244 1.668 1.99 3.727 1.99 5.963 0 2.206-.727 4.242-1.942 5.897z"/><path d="m49.7 6.953-3.242 2.37c2.215 2.991 3.542 6.678 3.542 10.677 0 3.97-1.308 7.632-3.494 10.612l3.241 2.369c2.671-3.641 4.253-8.129 4.253-12.981 0-4.881-1.6-9.394-4.3-13.047z"/><path d="m14.3 6.953c-2.7 3.653-4.3 8.166-4.3 13.047 0 4.852 1.582 9.34 4.253 12.981l3.241-2.369c-2.186-2.98-3.494-6.642-3.494-10.612 0-3.999 1.327-7.686 3.542-10.677z"/><path d="m11.073 4.593-3.227-2.36c-3.671 4.978-5.846 11.122-5.846 17.767 0 6.616 2.157 12.735 5.799 17.7l3.227-2.36c-3.156-4.303-5.026-9.606-5.026-15.34 0-5.763 1.887-11.092 5.073-15.407z"/><path d="m56.154 2.233-3.227 2.36c3.186 4.315 5.073 9.644 5.073 15.407 0 5.734-1.87 11.037-5.026 15.341l3.227 2.36c3.642-4.966 5.799-11.085 5.799-17.701 0-6.645-2.175-12.789-5.846-17.767z"/><path d="m36 20c0-2.209-1.791-4-4-4s-4 1.791-4 4c0 1.136.479 2.156 1.239 2.884l-11.695 38.116h3.138l1.227-4h20.18l1.227 4h3.138l-11.693-38.116c.76-.728 1.239-1.748 1.239-2.884zm2.102 24 2.664 8.682-14.208-8.682zm-11.283-3 1.501-4.891 5.978 4.891zm2.452-7.99.002-.01h5.453l1.833 5.974zm.923-3.01 1.806-5.886 1.806 5.886zm-5.1 16.621 12.075 7.379h-14.339z"/></svg>

<?xml version="1.0" encoding="utf-8"?>
<!-- Generator: Adobe Illustrator 25.2.0, SVG Export Plug-In . SVG Version: 6.00 Build 0)  -->
<svg version="1.1" xmlns="http://www.w3.org/2000/svg" xmlns:xlink="http://www.w3.org/1999/xlink" x="0px" y="0px"
	 viewBox="0 0 64 64" style="enable-background:new 0 0 64 64;" xml:space="preserve">
<style type="text/css">
	.st0{fill:none;}
</style>
<g id="Box">
	<rect class="st0" width="64" height="64"/>
</g>
<g id="Icon">
	<g>
		<path d="M23.942,25.897C22.727,24.242,22,22.206,22,20c0-2.236,0.746-4.295,1.991-5.962l-3.224-2.357
			C19.037,14.01,18,16.882,18,20c0,3.088,1.017,5.937,2.718,8.255L23.942,25.897z"/>
		<path d="M40.058,25.897l3.224,2.357C44.983,25.937,46,23.088,46,20c0-3.118-1.037-5.99-2.766-8.32l-3.224,2.357
			C41.254,15.705,42,17.764,42,20C42,22.206,41.273,24.242,40.058,25.897z"/>
		<path d="M49.7,6.953l-3.242,2.37C48.673,12.314,50,16.001,50,20c0,3.97-1.308,7.632-3.494,10.612l3.241,2.369
			C52.418,29.34,54,24.852,54,20C54,15.119,52.4,10.606,49.7,6.953z"/>
		<path d="M14.3,6.953C11.6,10.606,10,15.119,10,20c0,4.852,1.582,9.34,4.253,12.981l3.241-2.369C15.308,27.632,14,23.97,14,20
			c0-3.999,1.327-7.686,3.542-10.677L14.3,6.953z"/>
		<path d="M11.073,4.593l-3.227-2.36C4.175,7.211,2,13.355,2,20c0,6.616,2.157,12.735,5.799,17.7l3.227-2.36
			C7.87,31.037,6,25.734,6,20C6,14.237,7.887,8.908,11.073,4.593z"/>
		<path d="M56.154,2.233l-3.227,2.36C56.113,8.908,58,14.237,58,20c0,5.734-1.87,11.037-5.026,15.341l3.227,2.36
			C59.843,32.735,62,26.616,62,20C62,13.355,59.825,7.211,56.154,2.233z"/>
		<path d="M36,20c0-2.209-1.791-4-4-4c-2.209,0-4,1.791-4,4c0,1.136,0.479,2.156,1.239,2.884L17.544,61h3.138l1.227-4h20.18l1.227,4
			h3.138L34.761,22.884C35.521,22.156,36,21.136,36,20z M38.102,44l2.664,8.682L26.558,44H38.102z M26.819,41l1.501-4.891L34.298,41
			H26.819z M29.271,33.01L29.273,33h5.453l1.833,5.974L29.271,33.01z M30.194,30L32,24.114L33.806,30H30.194z M25.094,46.621
			L37.169,54H22.83L25.094,46.621z"/>
	</g>
</g>
</svg>
